X: 42453
T: Westmeath Hunt, The
R: reel
M: 4/4
K: Gmajor
|:g3f gdBG|gfgd BGBd|g3f gbag|(3fgf (3efe d2ef:|
|:gB (3BBB gBaB|gB (3BBB dBAB|gB (3BBB gbag|(3fgf (3efe d2ef:|
|:GBB2 GBdB|GBB2 dBAB|GBBA G3g|(3fgf (3efe d2ef:|
ad (3ddd adbd|ad (3ddd edBd|ad (3ddd abag|(3fgf (3efe d2ef|
ad (3ddd adbd|ad (3ddd edBd|g3f gbag|(3fgf (3efe d2ef||

